docs/images/icons/cpc_by.svg

<svg width="160" height="100" viewBox="0 0 160 100" fill="none" xmlns="http://www.w3.org/2000/svg">
<g id="logo" style="mix-blend-mode:luminosity">
<g id="Group 27">
<g id="cpc.by">
<path id="Vector" d="M145.597 58.9076C145.597 59.5308 145.518 60.0888 145.36 60.5818C145.201 61.084 144.992 61.5211 144.732 61.8932C144.471 62.2745 144.169 62.5954 143.825 62.8558C143.481 63.1255 143.118 63.3441 142.737 63.5115C142.365 63.6789 141.988 63.7998 141.607 63.8742C141.225 63.9579 140.863 63.9998 140.518 63.9998H133.975V60.3725H140.518C141.002 60.3725 141.365 60.2469 141.607 59.9958C141.848 59.7447 141.969 59.382 141.969 58.9076V42.3755H145.597V58.9076ZM140.518 57.4567H133.975C133.455 57.4567 132.896 57.3683 132.301 57.1916C131.715 57.0149 131.167 56.7266 130.655 56.3267C130.143 55.9174 129.72 55.3919 129.385 54.7502C129.051 54.0991 128.883 53.3039 128.883 52.3645V42.3755H132.51V52.3645C132.51 52.8389 132.636 53.2016 132.887 53.4527C133.138 53.7038 133.51 53.8294 134.003 53.8294H140.518V57.4567Z" fill="#787171"/>
<path id="Vector_2" d="M125.87 52.3647C125.87 52.7089 125.828 53.0716 125.744 53.4529C125.67 53.8342 125.549 54.2156 125.381 54.5969C125.214 54.9689 124.995 55.327 124.726 55.6712C124.465 56.0153 124.144 56.3222 123.763 56.5919C123.391 56.8524 122.959 57.0616 122.466 57.2197C121.973 57.3778 121.415 57.4569 120.792 57.4569H114.248C113.904 57.4569 113.542 57.4197 113.16 57.3453C112.779 57.2616 112.398 57.136 112.016 56.9686C111.644 56.8012 111.286 56.5873 110.942 56.3269C110.598 56.0571 110.291 55.7363 110.021 55.3642C109.761 54.9829 109.552 54.5458 109.393 54.0528C109.235 53.5506 109.156 52.9879 109.156 52.3647V36H112.784V52.3647C112.784 52.8112 112.923 53.1692 113.202 53.439C113.481 53.6994 113.83 53.8296 114.248 53.8296H120.792C121.247 53.8296 121.601 53.6947 121.852 53.425C122.112 53.1553 122.242 52.8019 122.242 52.3647V47.4539C122.242 46.9982 122.108 46.6447 121.838 46.3936C121.568 46.1332 121.219 46.003 120.792 46.003H114.248V42.3757H120.792C121.136 42.3757 121.498 42.4175 121.88 42.5012C122.261 42.5757 122.638 42.6966 123.01 42.864C123.391 43.0314 123.754 43.25 124.098 43.5197C124.442 43.7801 124.744 44.101 125.005 44.4823C125.265 44.8543 125.474 45.2868 125.633 45.7798C125.791 46.2727 125.87 46.8308 125.87 47.4539V52.3647Z" fill="#787171"/>
<path id="Vector_3" d="M106.408 55.6293C106.408 55.8804 106.357 56.1176 106.254 56.3408C106.161 56.5547 106.031 56.7454 105.864 56.9128C105.706 57.0709 105.515 57.1965 105.292 57.2895C105.078 57.3825 104.85 57.429 104.608 57.429C104.357 57.429 104.12 57.3825 103.897 57.2895C103.683 57.1965 103.492 57.0709 103.325 56.9128C103.167 56.7454 103.041 56.5547 102.948 56.3408C102.855 56.1176 102.808 55.8804 102.808 55.6293C102.808 55.3875 102.855 55.1596 102.948 54.9457C103.041 54.7225 103.167 54.5318 103.325 54.3737C103.492 54.2063 103.683 54.0761 103.897 53.9831C104.12 53.8807 104.357 53.8296 104.608 53.8296C104.85 53.8296 105.078 53.8807 105.292 53.9831C105.515 54.0761 105.706 54.2063 105.864 54.3737C106.031 54.5318 106.161 54.7225 106.254 54.9457C106.357 55.1596 106.408 55.3875 106.408 55.6293Z" fill="#787171"/>
<path id="Vector_4" d="M100.381 57.4567H90.5454C90.0431 57.4567 89.4944 57.3683 88.8992 57.1916C88.3039 57.0149 87.7505 56.7266 87.239 56.3267C86.7367 55.9174 86.3135 55.3919 85.9694 54.7502C85.6346 54.0991 85.4672 53.3039 85.4672 52.3645V47.4537C85.4672 47.1096 85.5044 46.7469 85.5788 46.3655C85.6625 45.9842 85.788 45.6075 85.9555 45.2355C86.1229 44.8541 86.3368 44.4914 86.5972 44.1473C86.8669 43.8032 87.1878 43.5009 87.5598 43.2405C87.9412 42.98 88.3783 42.7708 88.8712 42.6127C89.3642 42.4545 89.9222 42.3755 90.5454 42.3755H100.381V46.0028H90.5454C90.071 46.0028 89.7083 46.1237 89.4572 46.3655C89.2154 46.6073 89.0945 46.9794 89.0945 47.4816V52.3645C89.0945 52.8389 89.22 53.2016 89.4711 53.4527C89.7223 53.7038 90.0897 53.8294 90.5733 53.8294H100.381V57.4567Z" fill="#787171"/>
<path id="Vector_5" d="M82.6769 52.3645C82.6769 52.9877 82.5979 53.5504 82.4398 54.0526C82.2817 54.5456 82.0724 54.9827 81.812 55.364C81.5515 55.7361 81.2493 56.0569 80.9051 56.3267C80.561 56.5871 80.1983 56.801 79.817 56.9684C79.4449 57.1358 79.0682 57.2614 78.6869 57.3451C78.3056 57.4195 77.9428 57.4567 77.5987 57.4567H71.0556V53.8294H77.5987C78.0824 53.8294 78.4451 53.7038 78.6869 53.4527C78.9287 53.2016 79.0496 52.8389 79.0496 52.3645V47.4816C79.0496 46.9794 78.9241 46.6073 78.673 46.3655C78.4311 46.1237 78.0731 46.0028 77.5987 46.0028H71.0835C70.5906 46.0028 70.2185 46.1284 69.9674 46.3795C69.7163 46.6213 69.5907 46.9794 69.5907 47.4537V62.1722H65.9634V47.4537C65.9634 46.8306 66.0425 46.2725 66.2006 45.7796C66.3587 45.2866 66.568 44.8541 66.8284 44.4821C67.0981 44.1008 67.4051 43.7799 67.7492 43.5195C68.0933 43.2498 68.4514 43.0312 68.8234 42.8638C69.2048 42.6964 69.5861 42.5755 69.9674 42.501C70.3581 42.4173 70.7208 42.3755 71.0556 42.3755H77.5987C78.2219 42.3755 78.7799 42.4545 79.2729 42.6127C79.7658 42.7708 80.1983 42.98 80.5703 43.2405C80.9516 43.5009 81.2725 43.8032 81.5329 44.1473C81.8027 44.4914 82.0212 44.8541 82.1887 45.2355C82.3561 45.6075 82.477 45.9842 82.5514 46.3655C82.6351 46.7469 82.6769 47.1096 82.6769 47.4537V52.3645Z" fill="#787171"/>
<path id="Vector_6" d="M63.0477 57.4567H53.2121C52.7098 57.4567 52.1611 57.3683 51.5658 57.1916C50.9706 57.0149 50.4172 56.7266 49.9056 56.3267C49.4034 55.9174 48.9802 55.3919 48.6361 54.7502C48.3013 54.0991 48.1339 53.3039 48.1339 52.3645V47.4537C48.1339 47.1096 48.1711 46.7469 48.2455 46.3655C48.3292 45.9842 48.4547 45.6075 48.6221 45.2355C48.7896 44.8541 49.0035 44.4914 49.2639 44.1473C49.5336 43.8032 49.8545 43.5009 50.2265 43.2405C50.6079 42.98 51.045 42.7708 51.5379 42.6127C52.0309 42.4545 52.5889 42.3755 53.2121 42.3755H63.0477V46.0028H53.2121C52.7377 46.0028 52.375 46.1237 52.1239 46.3655C51.8821 46.6073 51.7612 46.9794 51.7612 47.4816V52.3645C51.7612 52.8389 51.8867 53.2016 52.1378 53.4527C52.389 53.7038 52.7563 53.8294 53.24 53.8294H63.0477V57.4567Z" fill="#787171"/>
</g>
<g id="Group 9">
<path id="Rectangle 9" d="M25.905 50.3137L32.4528 46.7422V53.2899L25.905 56.8614V50.3137Z" fill="url(#paint0_linear_245_5172)"/>
<path id="Rectangle 11" d="M25.905 50.3137L19.3573 46.7422V53.2899L25.905 56.8614V50.3137Z" fill="url(#paint1_linear_245_5172)"/>
<path id="Rectangle 12" d="M25.905 43.1712L19.3573 46.7427L25.905 50.3142L32.4528 46.7427L25.905 43.1712Z" fill="url(#paint2_linear_245_5172)"/>
<path id="Rectangle 13" d="M25.905 56.8618L32.4528 53.2903L37.81 56.5641L25.905 63.4095L25.905 56.8618Z" fill="#D84315"/>
<path id="Rectangle 14" d="M19.3573 53.2902L25.905 56.8617L25.905 63.4095L14 56.5641L19.3573 53.2902Z" fill="#C6151B"/>
<path id="Rectangle 17" d="M25.905 43.171L32.4528 46.7425L37.81 42.8734L25.905 36.028L25.905 43.171Z" fill="#575757"/>
<path id="Rectangle 15" d="M19.3573 46.7422L19.3573 53.2899L14.0001 56.5638L14.0001 42.873L19.3573 46.7422Z" fill="#96141D"/>
<path id="Rectangle 16" d="M19.3573 46.7424L25.905 43.1709L25.905 36.0279L14 42.8732L19.3573 46.7424Z" fill="#333333"/>
</g>
</g>
</g>
<defs>
<linearGradient id="paint0_linear_245_5172" x1="26.5003" y1="50.9089" x2="32.4528" y2="51.8018" gradientUnits="userSpaceOnUse">
<stop stop-color="#FEE7E0"/>
<stop offset="1" stop-color="#FFF4F4" stop-opacity="0"/>
</linearGradient>
<linearGradient id="paint1_linear_245_5172" x1="19.9525" y1="52.9923" x2="24.1193" y2="50.3137" gradientUnits="userSpaceOnUse">
<stop stop-color="#FABCBC"/>
<stop offset="1" stop-color="#FFEDED" stop-opacity="0.44"/>
</linearGradient>
<linearGradient id="paint2_linear_245_5172" x1="26.2026" y1="44.064" x2="26.2026" y2="50.0165" gradientUnits="userSpaceOnUse">
<stop stop-color="#C1BDBD"/>
<stop offset="1" stop-color="white" stop-opacity="0"/>
</linearGradient>
</defs>
</svg>

<svg width="160" height="100" fill="none" xmlns="http://www.w3.org/2000/svg"><g style="mix-blend-mode:luminosity"><path d="M145.597 58.908a5.48 5.48 0 0 1-.237 1.674 4.79 4.79 0 0 1-.628 1.311 4.094 4.094 0 0 1-.907.963 5.06 5.06 0 0 1-1.088.655 5.158 5.158 0 0 1-1.13.363 5.086 5.086 0 0 1-1.089.126h-6.543v-3.627h6.543c.484 0 .847-.126 1.089-.377.241-.251.362-.614.362-1.088V42.376h3.628v16.532Zm-5.079-1.451h-6.543a5.9 5.9 0 0 1-1.674-.265 5.01 5.01 0 0 1-1.646-.865 4.866 4.866 0 0 1-1.27-1.577c-.334-.65-.502-1.446-.502-2.386v-9.988h3.627v9.989c0 .474.126.837.377 1.088.251.25.623.376 1.116.376h6.515v3.628Zm-14.648-5.092c0 .344-.042.707-.126 1.088a5.374 5.374 0 0 1-.363 1.144c-.167.372-.386.73-.655 1.074a4.352 4.352 0 0 1-.963.92c-.372.261-.804.47-1.297.629a5.473 5.473 0 0 1-1.674.237h-6.544c-.344 0-.706-.037-1.088-.112a5.556 5.556 0 0 1-2.218-1.018 4.787 4.787 0 0 1-.921-.963 5.08 5.08 0 0 1-.628-1.311 5.612 5.612 0 0 1-.237-1.688V36h3.628v16.365c0 .446.139.804.418 1.074.279.26.628.39 1.046.39h6.544c.455 0 .809-.134 1.06-.404.26-.27.39-.623.39-1.06v-4.911c0-.456-.134-.81-.404-1.06-.27-.26-.619-.391-1.046-.391h-6.544v-3.627h6.544c.344 0 .706.041 1.088.125.381.075.758.196 1.13.363a5.06 5.06 0 0 1 1.088.656c.344.26.646.581.907.962.26.372.469.805.628 1.298.158.493.237 1.05.237 1.674v4.91Zm-19.462 3.265c0 .25-.051.488-.154.71a1.846 1.846 0 0 1-.39.573 1.751 1.751 0 0 1-.572.377 1.829 1.829 0 0 1-1.395 0 1.964 1.964 0 0 1-.572-.377 1.974 1.974 0 0 1-.377-.572 1.832 1.832 0 0 1-.14-.712c0-.241.047-.47.14-.683.093-.224.219-.414.377-.572.167-.168.358-.298.572-.39.223-.103.46-.154.711-.154.242 0 .47.05.684.153.223.093.414.223.572.39.167.159.297.35.39.573.103.214.154.442.154.683Zm-6.027 1.827h-9.836c-.502 0-1.05-.089-1.646-.265a4.98 4.98 0 0 1-1.66-.865 5.123 5.123 0 0 1-1.27-1.577c-.334-.65-.502-1.446-.502-2.386v-4.91c0-.344.037-.707.112-1.089.084-.38.209-.758.377-1.13.167-.38.38-.744.641-1.088.27-.344.59-.646.963-.907.381-.26.818-.47 1.311-.627a5.47 5.47 0 0 1 1.674-.237h9.836v3.627h-9.836c-.474 0-.837.12-1.088.362-.242.242-.362.614-.362 1.117v4.883c0 .474.125.837.376 1.088.251.25.619.376 1.102.376h9.808v3.628Zm-17.704-5.093a5.65 5.65 0 0 1-.237 1.689 5.04 5.04 0 0 1-.628 1.311c-.26.372-.563.693-.907.963a5.39 5.39 0 0 1-1.088.641 5.761 5.761 0 0 1-1.13.377 5.689 5.689 0 0 1-1.088.112h-6.543v-3.628h6.543c.483 0 .846-.125 1.088-.376.242-.251.363-.614.363-1.089v-4.882c0-.503-.126-.875-.377-1.117-.242-.241-.6-.362-1.074-.362h-6.516c-.492 0-.864.125-1.116.377-.25.241-.376.6-.376 1.074v14.718h-3.628V47.454c0-.623.08-1.181.238-1.674.158-.493.367-.926.627-1.298a4.33 4.33 0 0 1 .921-.962 5.2 5.2 0 0 1 1.074-.656 5.439 5.439 0 0 1 1.144-.363 5.201 5.201 0 0 1 1.089-.125h6.543a5.47 5.47 0 0 1 1.674.237 4.81 4.81 0 0 1 1.297.627c.382.26.703.563.963.907.27.344.488.707.656 1.089.167.372.288.748.362 1.13.084.38.126.744.126 1.088v4.91Zm-19.629 5.093h-9.836c-.502 0-1.05-.089-1.646-.265a4.981 4.981 0 0 1-1.66-.865 5.125 5.125 0 0 1-1.27-1.577c-.335-.65-.502-1.446-.502-2.386v-4.91c0-.344.037-.707.111-1.089a5.835 5.835 0 0 1 1.019-2.218c.27-.344.59-.646.962-.907.382-.26.819-.47 1.312-.627a5.47 5.47 0 0 1 1.674-.237h9.836v3.627h-9.836c-.474 0-.837.12-1.088.362-.242.242-.363.614-.363 1.117v4.883c0 .474.126.837.377 1.088.251.25.618.376 1.102.376h9.808v3.628Z" fill="#787171"/><path d="m25.905 50.314 6.548-3.572v6.548l-6.548 3.571v-6.547Z" fill="url(#a)"/><path d="m25.905 50.314-6.548-3.572v6.548l6.548 3.571v-6.547Z" fill="url(#b)"/><path d="m25.905 43.171-6.548 3.572 6.548 3.571 6.548-3.571-6.548-3.572Z" fill="url(#c)"/><path d="m25.905 56.862 6.548-3.572 5.357 3.274-11.905 6.846v-6.548Z" fill="#D84315"/><path d="m19.357 53.29 6.548 3.572v6.547L14 56.565l5.357-3.274Z" fill="#C6151B"/><path d="m25.905 43.171 6.548 3.572 5.357-3.87-11.905-6.845v7.143Z" fill="#575757"/><path d="M19.357 46.742v6.548L14 56.564V42.873l5.357 3.87Z" fill="#96141D"/><path d="m19.357 46.742 6.548-3.571v-7.143L14 42.873l5.357 3.87Z" fill="#333"/></g><defs><linearGradient id="a" x1="26.5" y1="50.909" x2="32.453" y2="51.802" gradientUnits="userSpaceOnUse"><stop stop-color="#FEE7E0"/><stop offset="1" stop-color="#FFF4F4" stop-opacity="0"/></linearGradient><linearGradient id="b" x1="19.953" y1="52.992" x2="24.119" y2="50.314" gradientUnits="userSpaceOnUse"><stop stop-color="#FABCBC"/><stop offset="1" stop-color="#FFEDED" stop-opacity=".44"/></linearGradient><linearGradient id="c" x1="26.203" y1="44.064" x2="26.203" y2="50.017" gradientUnits="userSpaceOnUse"><stop stop-color="#C1BDBD"/><stop offset="1" stop-color="#fff" stop-opacity="0"/></linearGradient></defs></svg>
